src/assets/duotone/Nebulas.svg

<svg width="24" height="24" viewBox="0 0 24 24"  xmlns="http://www.w3.org/2000/svg">
<path opacity="0.4" d="M12 22C17.5228 22 22 17.5228 22 12C22 6.47715 17.5228 2 12 2C6.47715 2 2 6.47715 2 12C2 17.5228 6.47715 22 12 22Z" />
<path d="M14.4999 10.7504L14.0899 10.9604H14.0799L9.3999 13.3804L10.4699 10.0404L13.5499 8.65039L14.4999 10.7504Z" />
<path d="M13.5502 8.65L10.4702 10.04L12.0002 5.25L13.5502 8.65Z" />
<path d="M10.47 10.0391L9.39999 13.3791L6 12.2491L8.17999 11.1591L10 10.2491L10.47 10.0391Z" />
<path d="M17.9999 12.2509L13.4999 14.7509L13.1899 14.6509L13.0999 14.6209L9.3999 13.3809L14.0799 10.9609H14.0899L17.9999 12.2509Z" />
<path d="M13.1899 14.6509L12.9999 15.2509L11.9999 18.2509L9.49991 13.5709L9.3999 13.3809L13.0999 14.6209L13.1899 14.6509Z" />
</svg>

<?xml version="1.0" encoding="UTF-8"?>
<svg width="24" height="24" viewBox="0 0 24 24" xmlns="http://www.w3.org/2000/svg">
 <path d="m12 22c5.5228 0 10-4.4772 10-10 0-5.5228-4.4772-10-10-10-5.5228 0-10 4.4772-10 10 0 5.5228 4.4772 10 10 10z" opacity=".4"/>
 <path d="m14.5 10.75-0.41 0.21h-0.01l-4.68 2.42 1.07-3.34 3.08-1.39 0.95 2.1z"/>
 <path d="m13.55 8.65-3.08 1.39 1.53-4.79 1.55 3.4z"/>
 <path d="m10.47 10.039-1.07 3.34-3.4-1.13 2.18-1.09 1.82-0.91 0.47-0.21z"/>
 <path d="m18 12.251-4.5 2.5-0.31-0.1-0.09-0.03-3.7-1.24 4.68-2.42h0.01l3.91 1.29z"/>
 <path d="m13.19 14.651-0.19 0.6-1 3-2.5-4.68-0.10001-0.19 3.7 1.24 0.09 0.03z"/>
</svg>
